X: 2185
T: Aunt May's Canadian
R: jig
M: 6/8
K: Dmajor
|:A|f3 ff/g/a|d3 dd/c/B|A^GA A=GF|E3- E2 a|
e3 ee/f/g|e3 dd/c/B|1 A^GA A=GE|F3- F2:|2 A^GA AA/B/c|d3- d2||
|:A|AFA f2 f|e2 c d2 A|AF/G/A ABA|A2 ^G =G2 G|
GEG e2 e|d2 B c2 A|1 A^GA BB/A/=G|F3- F2:|2 A^GA AA/B/c|d3- d2||

